X:10
T:Bonny Barbara MacPherson
T:Barbara Nic a' Phearsain
R:Slow Air
S:Simon Fraser Collection
N:No.97
O:Scottish
M:6/8
L:1/8
Q:3/8=70
K:F Minor
A/>G/|FC=E F>GA|c>BA G2 A/>G/|FC=E FAG|(F3F) z A/>G/|
FC=E F>GA|c>BA G2 G/>F/|EC=E FAG|(F3 Fz||F/G/|Acc cAc|
BAG F2 f/e/|cfg agf|(c3c)z F/>G/|Acc cAc|BAG F2 G/>F/|EC=E FAF|
(F3F)z||

